X:261
T:There's a fiddle in the Attic
S:Qristina Bachand
R:jig
M:6/8
L:1/8
K:F
c3- cBA | FAB d2d- | def cef | Bfe dcA |
c3- cBA | FAB d2c| def agf |1 ece fAB :|2 ece f2F- :|
FGA c2F | GAB d2c | def cef | Bfe dcA |
FGA c2F | GAB d2c | def agf | ece f2F- |
FGA c2F | GAB d2c | def cef | Bfe dcA |
c3- cBA | FAB d2c| def agf | ece fAB |]
